src/pos-icons/car-light-dimmed.svg

<svg height="24" viewBox="0 0 24 24" width="24" xmlns="http://www.w3.org/2000/svg"><path d="m13 4.8c-4 0-4 14.4 0 14.4s9-2.7 9-7.2-5-7.2-9-7.2m.1 12.4c-.4-.4-1.1-2.2-1.1-5.2s.7-4.8 1.1-5.2c2.9.1 6.9 1.9 6.9 5.2s-4.1 5.1-6.9 5.2m-5.1-6.7c0 .5-.1 1-.1 1.5v.6l-5.5 1.4-.5-1.9zm-6-3.5 7.4-1.9c-.2.3-.4.7-.5 1.2-.1.3-.2.7-.3 1.1l-6.1 1.5zm6.2 8.5c.1.7.3 1.4.5 1.9l-6.3 1.6-.5-1.9z"/></svg>

<?xml version="1.0" encoding="UTF-8"?><!DOCTYPE svg PUBLIC "-//W3C//DTD SVG 1.1//EN" "http://www.w3.org/Graphics/SVG/1.1/DTD/svg11.dtd"><svg xmlns="http://www.w3.org/2000/svg" xmlns:xlink="http://www.w3.org/1999/xlink" version="1.1" id="mdi-car-light-dimmed" width="24" height="24" viewBox="0 0 24 24"><path d="M13,4.8C9,4.8 9,19.2 13,19.2C17,19.2 22,16.5 22,12C22,7.5 17,4.8 13,4.8M13.1,17.2C12.7,16.8 12,15 12,12C12,9 12.7,7.2 13.1,6.8C16,6.9 20,8.7 20,12C20,15.3 15.9,17.1 13.1,17.2M8,10.5C8,11 7.9,11.5 7.9,12C7.9,12.2 7.9,12.4 7.9,12.6L2.4,14L1.9,12.1L8,10.5M2,7L9.4,5.1C9.2,5.4 9,5.8 8.9,6.3C8.8,6.6 8.7,7 8.6,7.4L2.5,8.9L2,7M8.2,15.5C8.3,16.2 8.5,16.9 8.7,17.4L2.4,19L1.9,17.1L8.2,15.5Z" /></svg>
